server/website/public/icons/base/files.svg

<svg width="48" height="48" viewBox="0 0 48 48" fill="none" xmlns="http://www.w3.org/2000/svg">
<path d="M44.4444 9.31818H29.0378L22.8733 4.70909C22.257 4.25052 21.509 4.0019 20.74 4H10.6667C9.72367 4 8.81931 4.37354 8.15251 5.03844C7.48571 5.70334 7.11111 6.60514 7.11111 7.54545V11.0909H3.55556C2.61256 11.0909 1.70819 11.4644 1.0414 12.1293C0.374602 12.7943 0 13.6961 0 14.6364V39.4545C0 40.3949 0.374602 41.2967 1.0414 41.9616C1.70819 42.6265 2.61256 43 3.55556 43H37.5311C38.4213 42.9988 39.2747 42.6457 39.9041 42.018C40.5336 41.3904 40.8877 40.5394 40.8889 39.6518V35.9091H44.6422C45.5324 35.9079 46.3858 35.5548 47.0152 34.9271C47.6447 34.2995 47.9988 33.4485 48 32.5609V12.8636C48 11.9233 47.6254 11.0215 46.9586 10.3566C46.2918 9.69172 45.3874 9.31818 44.4444 9.31818ZM44.4444 32.3636H40.8889V19.9545C40.8889 19.0142 40.5143 18.1124 39.8475 17.4475C39.1807 16.7826 38.2763 16.4091 37.3333 16.4091H21.9267L15.7622 11.8C15.1459 11.3414 14.3979 11.0928 13.6289 11.0909H10.6667V7.54545H20.74L27.3778 12.5091C27.6855 12.7392 28.0598 12.8636 28.4444 12.8636H44.4444V32.3636Z" fill="black"/>
</svg>

<svg width="48" height="48" fill="none" xmlns="http://www.w3.org/2000/svg"><path d="M44.444 9.318H29.038L22.873 4.71A3.589 3.589 0 0020.74 4H10.667a3.56 3.56 0 00-2.514 1.038A3.54 3.54 0 007.11 7.545v3.546H3.556a3.56 3.56 0 00-2.515 1.038A3.54 3.54 0 000 14.636v24.819c0 .94.375 1.842 1.041 2.507A3.56 3.56 0 003.556 43H37.53a3.367 3.367 0 002.373-.982c.63-.628.984-1.479.985-2.366v-3.743h3.753a3.367 3.367 0 002.373-.982c.63-.627.984-1.478.985-2.366V12.864a3.54 3.54 0 00-1.041-2.507 3.56 3.56 0 00-2.515-1.039zm0 23.046H40.89v-12.41a3.54 3.54 0 00-1.042-2.506 3.56 3.56 0 00-2.514-1.039H21.927L15.762 11.8a3.589 3.589 0 00-2.133-.71h-2.962V7.546H20.74l6.638 4.964c.308.23.682.355 1.066.355h16v19.5z" fill="#000"/></svg>
